svgs/sharp-solid/h1.svg

<svg xmlns="http://www.w3.org/2000/svg" viewBox="0 0 576 512"><!--! Font Awesome Pro 6.4.0 by @fontawesome - https://fontawesome.com License - https://fontawesome.com/license (Commercial License) Copyright 2023 Fonticons, Inc. --><path d="M64 96V64H0V96 256 416v32H64V416 288H256V416v32h64V416 256 96 64H256V96 224H64V96zm341 61.2l43-19.1V384H416 384v64h32 64 64 32V384H544 512V96 64H480 464h-6.8L451 66.8 384 96.5v70l21-9.3z"/></svg>

<svg xmlns="http://www.w3.org/2000/svg" viewBox="0 0 576 512"><!--! Font Awesome Pro 6.6.0 by @fontawesome - https://fontawesome.com License - https://fontawesome.com/license (Commercial License) Copyright 2024 Fonticons, Inc. --><path d="M64 96l0-32L0 64 0 96 0 256 0 416l0 32 64 0 0-32 0-128 192 0 0 128 0 32 64 0 0-32 0-160 0-160 0-32-64 0 0 32 0 128L64 224 64 96zm341 61.2l43-19.1L448 384l-32 0-32 0 0 64 32 0 64 0 64 0 32 0 0-64-32 0-32 0 0-288 0-32-32 0-16 0-6.8 0L451 66.8 384 96.5l0 70 21-9.3z"/></svg>
